packages/components/bolt-icons/src/svgs/pega/pega-key.svg

<svg viewBox="0 0 32 32" xmlns="http://www.w3.org/2000/svg"><path fill="#fff" d="m5.68 14.12a1.88 1.88 0 1 0 0 3.76 1.88 1.88 0 1 0 0-3.76z"/><path fill="#fff" d="m28.46 12.16h-13a8.28 8.28 0 0 0 -7.2-4.1 8.1 8.1 0 0 0 -8.26 7.94 8.1 8.1 0 0 0 8.23 7.94 8.25 8.25 0 0 0 7.57-4.83h3.29a1 1 0 0 0 .72-.3l.87-.92 2.57 1.81a1 1 0 0 0 .58.18 1 1 0 0 0 .68-.27l1.56-1.46a3.57 3.57 0 0 0 2.39.89 3.44 3.44 0 1 0 0-6.88zm-20.23 9.78a6.1 6.1 0 0 1 -6.23-5.94 6.1 6.1 0 0 1 6.23-5.94 6.09 6.09 0 0 1 6.23 5.94 6.09 6.09 0 0 1 -6.23 5.94zm20.23-4.94a1.59 1.59 0 0 1 -1.4-.81 1 1 0 0 0 -.71-.53 1 1 0 0 0 -.86.25l-1.75 1.69-2.61-1.84a1 1 0 0 0 -1.3.13l-1.17 1.22h-2.29a8 8 0 0 0 .09-1.11 7.48 7.48 0 0 0 -.23-1.84h12.23a1.44 1.44 0 1 1 0 2.88z"/></svg>

<svg id="icon-key" data-name="key" xmlns="http://www.w3.org/2000/svg" viewBox="0 0 32 32"><path d="M5.68,14.12a1.88,1.88,0,1,0,0,3.76,1.88,1.88,0,1,0,0-3.76Z"/><path d="M28.46,12.16h-13a8.28,8.28,0,0,0-7.2-4.1A8.1,8.1,0,0,0,0,16a8.1,8.1,0,0,0,8.23,7.94,8.25,8.25,0,0,0,7.57-4.83h3.29a1,1,0,0,0,.72-.3l.87-.92,2.57,1.81a1,1,0,0,0,.58.18,1,1,0,0,0,.68-.27l1.56-1.46a3.57,3.57,0,0,0,2.39.89,3.44,3.44,0,1,0,0-6.88ZM8.23,21.94A6.1,6.1,0,0,1,2,16a6.1,6.1,0,0,1,6.23-5.94A6.09,6.09,0,0,1,14.46,16,6.09,6.09,0,0,1,8.23,21.94ZM28.46,17a1.59,1.59,0,0,1-1.4-.81,1,1,0,0,0-.71-.53,1,1,0,0,0-.86.25L23.74,17.6l-2.61-1.84a1,1,0,0,0-1.3.13l-1.17,1.22H16.37A8,8,0,0,0,16.46,16a7.48,7.48,0,0,0-.23-1.84H28.46a1.44,1.44,0,1,1,0,2.88Z"/></svg>
